material/.icons/material/forwardburger.svg

<svg xmlns="http://www.w3.org/2000/svg" viewBox="0 0 24 24"><path d="M19 13H3v-2h16l-4-4 1.4-1.4 6.4 6.4-6.4 6.4L15 17l4-4M3 6h10v2H3V6m10 10v2H3v-2h10z"/></svg>

<?xml version="1.0" encoding="UTF-8"?><!DOCTYPE svg PUBLIC "-//W3C//DTD SVG 1.1//EN" "http://www.w3.org/Graphics/SVG/1.1/DTD/svg11.dtd"><svg xmlns="http://www.w3.org/2000/svg" xmlns:xlink="http://www.w3.org/1999/xlink" version="1.1" id="mdi-forwardburger" width="24" height="24" viewBox="0 0 24 24"><path d="M19,13H3V11H19L15,7L16.4,5.6L22.8,12L16.4,18.4L15,17L19,13M3,6H13V8H3V6M13,16V18H3V16H13Z" /></svg>
